X:1
T:# / 5 haydn: psalm 26, how oft, instinct with warmth divine
%%score [ 1 2 3 ]
L:1/8
Q:1/4=120
M:3/2
K:F
V:1 treble nm="Soprano" snm="S"
V:2 treble nm="Alto" snm="A"
V:3 bass nm="Basso" snm="B"
V:1
"^slowly" A4 | c8 B4 | A8 A4 | d8 c4 | (c4 =B4)"^5""^Joseph Haydn""^1732 - 1809" _B4 | (f2 d2) c8 | %6
w: ~How|oft, in-|stinct with|warmth di-|vine, * thy|old * have|
 =B4 c8 | c4 (_e4 d4) | c4 (c4 B4) | A4 x8 | (G4 B4) d4 |"^," G8 c4 | c4 =B4 d4 | f8 =B4 | %14
w: I trod!|How lov'd *|the courts, *|whose|walls * en-|shrine the|glo- * ry|of my|
 !fermata!c8 c4 | (c4 B4) B4 | (B4 A4) c4 | f8 _e4 | (_e4 d4)"^," d4 | f8 (d2 B2) | A8 (B2 G2) | %21
w: God! How|lov'd * the|courts, * whose|walls en-|shrine * the|glo- ry *|of my *|
 !fermata!F8 ||[K:Ab] c4 | (c4 !courtesy!_A4) F4 | =E8 B4 | (B4 A4) G4 | (G4 F4) F4 | (F4 =E4) F4 | %28
w: God!|O|let * me|not, o|let * me|not * the|venge- * ance|
 =E8"^," G4 | c8 B4 | A8 A4 | G8"^," G4 | A8 A4 | d8 d4 | (d4 c4) B4 | c8"^," e4 | %36
w: share, that|waits the|guil- ty|tribe, whose|mur- d'rous|hands each|mis- * chief|dare, and|
 (e4 d4) (d2 B2) | A8 G4 | !fermata!A8!p! A4 | (A4 G4) B4 | (B4 A4) c4 | B8 d4 | c8 e4 | %43
w: grasp * the *|of- fer'd|bribe. But|pour, * o|pour, * while|thus I|tread, while|
 (e4 d4) c4 | d8"^,"!f! B4 | =e8 e4 | f8 A4 | (A4 G4) =E4 | (F6 A2) (G2 F2) | =E8"^," c4 | %50
w: thus * I|tread, the|path by|Thee pre-|par'd, * by|Thee * pre- *|par'd, thy|
 (c4 !courtesy!_B4) B4 | (B4 =A4) A4 | B8 c4 | !fermata!d8 d4 | c8 B4 | (A4 B4) G4 | F8 || %57
w: beams * of|mer- * cy|on my|head, and|round me|plant * a|guard.|
[K:F] A4 | c8 B4 | A8 A4 | d8 c4 | (c4 =B4)"^," _B4 | A8 (f2 d2) | c8 =B4 | c8 c4 | (_e4 d4) c4 | %66
w: ~Thou,|Lord, my|steps hast|fix'd a-|right, * and|pleas'd shalt *|hear my|tongue with|Is- * rael's|
 (c4 B4) A4 | (G4 B4) d4 | G8 c4 | (c4 =B4) d4 | f8 =B4 | !fermata!c8 c4 | (c4 !courtesy!_B4) B4 | %73
w: thank- * ful|sons * u-|nite to|form * the|fes- tal|song, with|Is- * rael's|
 (B4 A4) c4 | f8 _e4 | (_e4 d4)"^," d4 | f8 (d2 B2) | (A12- | A4 B4) G4 | !fermata!F8 |] %80
w: thank- * ful|sons u-|nite * to|form the *|fes-|* * tal|song.|
V:2
 F4 | A8 G4 | F8 F4 | F8 ^F4 | G8 G4 | G4 (F2 E2 D2 F2) | E8 F4 | E8 (c2 B2) | A8 A4 | D8 ^F4 | %10
w: How|oft, in-|stinct with|warmth di-|vine, thy|thresh- old * * *|have I|trod! How *|lov'd the|courts, whose|
 (G8 !courtesy!=F4) | (F4 E4) E4 | F8 F4 | (d4 =B4) F4 | !fermata!E8 F4 | (E6 F2) G4 | (G4 F4) A4 | %17
w: walls en-|shrine * the|glo- ry|of * my|God! How|lov'd * the|courts, * whose|
 (A4 B4) c4 | F8"^," B4 | d8 (B2 G2) | F8 (G2 E2) | !fermata!F8 ||[K:Ab] z4 | z12 | %24
w: walls * en-|shrine the|glo- ry *|of my *|God!|||
 z4 z4 !courtesy!_d4 | (d4 c4) B4 | A8 A4 | (A4 G4) A4 | G8"^," =E4 | (=E6 F2) G4 | F8 F4 | %31
w: O|let * me|not the|venge- * ance|share, that|waits * the|guil- ty|
 =E8"^," E4 | F8 F4 | F8 F4 | G8 G4 | A8"^," _G4 | F8 (f2 d2) | c8 B4 | !fermata!A8 z4 | z12 | %40
w: tribe, whose|mur- d'rous|hands each|mis- chief|dare, and|grasp the *|of- fer'd|bribe.||
 z4 z4!p! A4 | (A4 G4) B4 | (B4 A4) (c2 B2) | =A8 A4 | B8"^,"!f! (d2 B2) | G8 G4 | A8 F4 | %47
w: But|pour, * o|pour, * while *|thus I|tread, the *|path by|Thee pre-|
 (F4 =E4) c4 | =B8 B4 | c8"^," =E4 | F8 F4 | (!courtesy!_E6 F2) _G4 | F8 F4 | !fermata!F8 =E4 | %54
w: par'd, * by|Thee pre-|par'd, thy|beams of|mer- * cy|on my|head, and|
 F8 G4 | (F4 G4) =E4 | F8 ||[K:F] F4 | !courtesy!=A8 G4 | F8 F4 | F8 ^F4 | G8"^," G4 | %62
w: round me|plant * a|guard.|~Thou,|Lord, my|steps hast|fix'd a-|right, and|
 (G4 F2 E2) (D2 F2) | E8 F4 | E8 (c2 B2) | A8 A4 | D8 ^F4 | G8 !courtesy!=F4 | (F4 E4) E4 | F8 F4 | %70
w: pleas'd * * shalt *|hear my|tongue with *|Is- rael's|thank- ful|sons u-|nite * to|form the|
 (d4 =B4) F4 | !fermata!E8 F4 | (E6 F2) G4 | (G4 F4) A4 | (A4 B4) c4 | F8"^," B4 | d8 (B2 G2) | %77
w: fes- * tal|song, with|Is- * rael's|thank- * ful|sons * u-|nite to|form the *|
 (F12- | F4 G4) E4 | !fermata!F8 |] %80
w: fes-|* * \-tal|song.|
V:3
 z4 | F,4 A,4 C4 | %2
w: |~How oft, in-|
 D8"^Psalm 26""^How oft, instinct with warth divine""^(""^from""^: Six english Psalms)" C4 | %3
w: stinct with|
 B,8 A,4 | G,8 E,4 | F,8 F,4 | G,8 G,4 | C,8 (A,2 G,2) | ^F,8 F,4 | G,8 A,4 | B,8 =B,4 | C8 C4 | %12
w: warmth di-|vine, thy|thresh- old|have I|trod! How *|lov'd the|courts, whose|walls en-|shrine the|
 D8 =B,4 | G,8 G,4 | !fermata!C8 A,4 | G,8 C,4 | F,8 F,4 | (F,4 G,4) A,4 | B,8"^," B,4 | B,,8 B,4 | %20
w: glo- ry|of my|God! How|lov'd the|courts, whose|walls * en-|shrine the|glo- ry|
 C8 C,4 | !fermata!F,8 ||[K:Ab] z4 | z4 z4 D4 | (D4 B,4) G,4 | =E,8 E,4 | F,4 D,4 C,4 | %27
w: of my|God!||O|let * me|not the|venge- ance, the|
 =B,,8 B,,4 | C,8"^," C4 | C8 C4 | (D4 C4) =B,4 | C8"^," C4 | F,8 F,4 | B,,8 B,,4 | E,8 E,4 | %35
w: venge- ance|share, that|waits the|guil- * ty|tribe, whose|mur- d'rous|hands each|mis- chief|
 A,8"^," C,4 | D,8 B,,4 | E,8 E,4 | !fermata!A,,8!p! C4 | B,8 D4 | C8 A,4 | E,8 E,4 | A,8 _G,4 | %43
w: dare, and|grasp the|of- fer'd|bribe. But|pour, o|pour, while|thus I|tread, while|
 F,8 F,4 | B,8"^,"!f! B,4 | B,8 B,4 | =B,8 B,4 | C8 C4 | D8 D4 | C8"^," C,4 | D,8 D4 | (C6 D2) E4 | %52
w: thus I|tread, the|path by|Thee pre-|par'd, by|Thee pre-|par'd, thy|beams of|mer- * cy|
 D8 =A,4 | !fermata!B,8 G,4 | A,8 B,4 | C8 C,4 | F,8 ||[K:F] z4 | F,4 !courtesy!=A,4 C4 | D8 C4 | %60
w: on my|head, and|round me|plant a|guard.||Thou Lord my|steps hast|
 B,8 A,4 | G,8"^," E,4 | F,8 F,4 | G,8 G,4 | C,8 (A,2 G,2) | ^F,8 F,4 | G,8 A,4 | B,8 =B,4 | %68
w: fix'd a-|right, and|pleas'd shalt|hear my|tongue with *|Is- rael's|thank- ful|sons u-|
 C8 C4 | D8 =B,4 | G,8 G,4 | !fermata!C8 A,4 | G,8 C,4 | F,8 F,4 | (F,4 G,4) A,4 | B,8"^," B,4 | %76
w: nite to|form the|fes- tal|song, with|Is- rael's|thank- ful|sons * u-|nite to|
 B,,8 B,4 | C12 | C,12 | !fermata!F,8 |] %80
w: form the|fes-|tal|song.|

